X: 1
T:Viel sch\"oner Bl\"umelein
C:Johann Hermann Schein
O:Germany
N:1626
Z:Transcribed by Frank Nordberg - http://www.musicaviva.com

V:1 Program 1 74 %Recorder
V:2 Program 1 72 %Piccolo
V:3 Program 1 71 %Clarinet
M:C
L:1/8
Q:1/4=144
K:G
V:1
B2d3c BB|A4 z A Bc|d2d2 z B cd|e2e2 z B dG|

V:2
G2B3A GG|F4 z F GA|B2B2 z G AB|c2c2 z G BE|

V:3
G,2G,3A, B,C|D4 z D B,A,|G,2G,2 z G =FD|C2C2 z E B, C|

V:1
B4A4|G8::z2 d2d2e2|c2d2e4|

V:2
(F2G2)F4|G8::z2 B2B2c2|A2B2c4|

V:3
D4D4|G,8::z2 G2G2E2|=F2D2C4|

V:1
e4 z G Bc|d2=f2e4|d2A2B2c2|d4c4|

V:2
cE GA B2 z G|Bc dd (d2^c2)|d8|z2 D2E2F2|

V:3
CC E=FG4-|G2D2A4|D2D2D2C2|B,4A,4|

V:1
B4B4|A2A2B2c2|d4c4|(B2AGA2)A2|G8:|

V:2
G2G2D2E2|F8|z2 D2E2F2|G2 (DE) (FG2)F|G8:|

V:3
G,4G,4|D2D2D2C2|B,4A,4|G,4D4|G,8:|

